images/about-us/panit-can.svg

<?xml version="1.0" encoding="UTF-8"?>
<svg width="64px" height="80px" viewBox="0 0 64 80" version="1.1" xmlns="http://www.w3.org/2000/svg" xmlns:xlink="http://www.w3.org/1999/xlink">
    <!-- Generator: sketchtool 50.2 (55047) - http://www.bohemiancoding.com/sketch -->
    <title>D1EAC14D-9A1A-4AFB-A43F-2BF09581E8F4</title>
    <desc>Created with sketchtool.</desc>
    <defs>
        <linearGradient x1="-1.11022302e-14%" y1="50%" x2="100%" y2="50%" id="linearGradient-1">
            <stop stop-color="#DBE2EA" offset="0%"></stop>
            <stop stop-color="#D3D9E1" offset="100%"></stop>
        </linearGradient>
        <path d="M59.0769231,50.4615385 C59.0769231,57.9386243 45.8521034,64 29.5384615,64 C13.2248197,64 0,57.9386243 0,50.4615385 L0,0 L59.0769231,0 L59.0769231,50.4615385 Z" id="path-2"></path>
    </defs>
    <g id="Illustration" stroke="none" stroke-width="1" fill="none" fill-rule="evenodd">
        <g id="ill" transform="translate(-860.000000, -388.000000)">
            <g id="Group-2" transform="translate(109.000000, 90.000000)">
                <g id="Group-4" transform="translate(751.000000, 298.000000)">
                    <g id="Oval-3" transform="translate(1.230769, 16.000000)">
                        <mask id="mask-3" fill="white">
                            <use xlink:href="#path-2"></use>
                        </mask>
                        <use id="Mask" fill="url(#linearGradient-1)" xlink:href="#path-2"></use>
                        <path d="M29.5384615,22.1538462 C46.5318385,22.1538462 60.3076923,14.9904022 60.3076923,6.15384615 C60.3076923,5.37789897 60.3076923,3.73687333 60.3076923,1.23076923 C49.6315836,-6.15384615 39.3751734,-9.84615385 29.5384615,-9.84615385 C20.176018,-9.84615385 9.91960774,-6.15384615 -1.23076923,1.23076923 C-1.23076923,3.49025383 -1.23076923,5.13127947 -1.23076923,6.15384615 C-1.23076923,14.9904022 12.5450846,22.1538462 29.5384615,22.1538462 Z" fill="#ACB2C7" mask="url(#mask-3)"></path>
                    </g>
                    <path d="M30.7692308,36.9230769 C47.7626077,36.9230769 61.5384615,29.7596329 61.5384615,20.9230769 C61.5384615,20.1471297 61.5384615,18.5061041 61.5384615,16 C50.8623529,8.61538462 40.6059426,4.92307692 30.7692308,4.92307692 C21.4067872,4.92307692 11.150377,8.61538462 0,16 C1.63046215e-13,18.2594846 2.44569322e-13,19.9005102 2.44569322e-13,20.9230769 C2.44569322e-13,29.7596329 13.7758539,36.9230769 30.7692308,36.9230769 Z" id="Oval-3" fill="#C4CCD8"></path>
                    <ellipse id="Oval-3" fill="#DBE2EA" cx="30.7692308" cy="16" rx="30.7692308" ry="16"></ellipse>
                    <ellipse id="Oval-3" fill="#9EA6BA" cx="30.7692308" cy="15.3846154" rx="28.3076923" ry="12.9230769"></ellipse>
                    <path d="M4.58805599,20.3076923 C8.82892692,15.6124466 18.953701,12.3076923 30.7692308,12.3076923 C42.5847605,12.3076923 52.7095346,15.6124466 56.9504055,20.3076923 C52.7095346,25.002938 42.5847605,28.3076923 30.7692308,28.3076923 C18.953701,28.3076923 8.82892692,25.002938 4.58805599,20.3076923 Z" id="Combined-Shape" fill="#FEC502"></path>
                    <path d="M24.0382236,72.2623137 C10.9677627,70.8661566 1.23076923,65.4927099 1.23076923,59.0769231 L1.23076923,30.7692308 C1.88990478,36.6133759 11.3889263,41.442385 24.0001636,42.7360085 C24.0001636,43.5 24.0382236,71.5 24.0382236,72.2623137 Z" id="Combined-Shape" fill="#FEC502"></path>
                    <path d="M16,33.2307692 C35.2538646,51.5030345 49.8179671,57.8620089 59.6923077,52.3076923 C64.0001605,49.8845251 64.0673127,45.2526596 59.8937642,38.4120959" id="Path-5" stroke="#969696"></path>
                </g>
            </g>
        </g>
    </g>
</svg>

<svg xmlns="http://www.w3.org/2000/svg" width="64" height="80" xmlns:xlink="http://www.w3.org/1999/xlink"><title>D1EAC14D-9A1A-4AFB-A43F-2BF09581E8F4</title><desc>Created with sketchtool.</desc><defs><linearGradient id="b" x1="0%" y1="50%" y2="50%"><stop stop-color="#DBE2EA" offset="0%"/><stop stop-color="#D3D9E1" offset="100%"/></linearGradient><path id="a" d="M59.08 50.46C59.08 57.94 45.85 64 29.54 64 13.22 64 0 57.94 0 50.46V0h59.08v50.46z"/></defs><g fill="none"><g><g><g transform="translate(0 0)"><g id="Oval-3" transform="translate(1.231 16)"><mask id="c"><use xlink:href="#a"/></mask><use fill="url(#b)" xlink:href="#a"/><path fill="#ACB2C7" d="M29.54 22.15c17 0 30.77-7.16 30.77-16 0-.77 0-2.4 0-4.92C49.64-6.15 39.4-9.85 29.55-9.85c-9.36 0-19.62 3.7-30.77 11.08 0 2.26 0 3.9 0 4.92 0 8.84 13.78 16 30.77 16z" mask="url(#c)"/></g><path id="Oval-3" fill="#C4CCD8" d="M30.77 36.92c17 0 30.77-7.16 30.77-16 0-.77 0-2.4 0-4.92C50.86 8.62 40.6 4.92 30.77 4.92 21.4 4.92 11.15 8.62 0 16c0 2.26 0 3.9 0 4.92 0 8.84 13.78 16 30.77 16z"/><ellipse id="Oval-3" cx="30.769" cy="16" fill="#DBE2EA" rx="30.769" ry="16"/><ellipse cx="30.769" cy="15.385" fill="#9EA6BA" rx="28.308" ry="12.923"/><path fill="#FEC502" d="M4.6 20.3c4.23-4.7 14.35-8 26.17-8 11.8 0 21.94 3.3 26.18 8-4.24 4.7-14.37 8-26.18 8-11.82 0-21.94-3.3-26.18-8zM24.04 72.26c-13.07-1.4-22.8-6.77-22.8-13.18v-28.3C1.88 36.6 11.38 41.43 24 42.73c0 .76.04 28.76.04 29.52z"/><path stroke="#969696" d="M16 33.23C35.25 51.5 49.82 57.86 59.7 52.3c4.3-2.42 4.37-7.05.2-13.9"/></g></g></g></g></svg>
